src/lib/packages/icons/src/assets/filled/lamp-desk.svg

<svg width="24" height="24" viewBox="0 0 24 24" fill="none" xmlns="http://www.w3.org/2000/svg">
<path d="M17.2999 8.86001C17.3699 9.06001 17.2199 9.25001 17.0199 9.25001H6.97992C6.76992 9.25001 6.62992 9.05001 6.69992 8.86001C7.20992 7.36001 7.62992 5.51001 7.67992 3.40001C7.67992 3.18001 7.85992 3.01001 8.06992 3.01001H15.9399C16.1599 3.01001 16.3299 3.19001 16.3299 3.40001C16.3799 5.52001 16.7899 7.36001 17.3099 8.86001H17.2999ZM18.9399 12.4C18.7299 12.05 18.4399 11.55 18.1499 10.93C18.0999 10.83 17.9899 10.76 17.8799 10.76H6.11992C6.00992 10.76 5.89992 10.83 5.84992 10.93C5.54992 11.55 5.26992 12.05 5.05992 12.4C4.89992 12.67 5.08992 13 5.39992 13H11.2499V20.25H9.49992C9.08992 20.25 8.74992 20.59 8.74992 21C8.74992 21.41 9.08992 21.75 9.49992 21.75H14.4999C14.9099 21.75 15.2499 21.41 15.2499 21C15.2499 20.59 14.9099 20.25 14.4999 20.25H12.7499V13H14.7499V16C14.7499 16.41 15.0899 16.75 15.4999 16.75C15.9099 16.75 16.2499 16.41 16.2499 16V13H18.5999C18.9099 13 19.1099 12.66 18.9399 12.4Z" fill="currentColor"/>
</svg>

<svg xmlns="http://www.w3.org/2000/svg" width="24" height="24" fill="none"><path fill="currentColor" d="M17.3 8.86c.07.2-.08.39-.28.39H6.98a.29.29 0 0 1-.28-.39c.51-1.5.93-3.35.98-5.46 0-.22.18-.39.39-.39h7.87c.22 0 .39.18.39.39.05 2.12.46 3.96.98 5.46h-.01Zm1.64 3.54c-.21-.35-.5-.85-.79-1.47a.313.313 0 0 0-.27-.17H6.12c-.11 0-.22.07-.27.17-.3.62-.58 1.12-.79 1.47-.16.27.03.6.34.6h5.85v7.25H9.5c-.41 0-.75.34-.75.75s.34.75.75.75h5c.41 0 .75-.34.75-.75s-.34-.75-.75-.75h-1.75V13h2v3c0 .41.34.75.75.75s.75-.34.75-.75v-3h2.35c.31 0 .51-.34.34-.6Z"/></svg>
